!!!!SEGMENT: pl-wtm--670-sp-3678--001-014_reinecke-carl--piosenki-dla-mlodocianego-wieku-piotr-maszynski-14-zosia-i-januszek-trzesa-gruszki.krn
!!!cenid: 18xx:4766
!!!COM: Reinecke, Carl
!!!COM-rismID: pe42007
!!!CDT: 1824/06/23-1910/03/10
!!!CNT: German
!!!GTL: Piosenki dla młodocianego wieku (Piotr Maszyński)
!!!OTL: 14. Zosia i Januszek trzęsą gruszki
!!!OMV: 014
!!!PDT: 1871
!!!AGN: Secular; Song; Children
!!!YEC: Copyright 2022 Narodowy Instytut Fryderyka Chopina (https://polishscores.org)
!!!YEM: License CC-BY-4.0 (https://creativecommons.org/licenses/by/4.0)
!!!SMS-siglum: PL-Wtm
!!!SMS-shelfmark: 670 śp 3678
!!!SMS-variant:
!!!SMS-altvar:
!!!SMS-shelfwork: 001-014 G
!!!NIFC-rismSourceID: 1001185478
!!!NIFC-rismChildID: 1001185478
!!!NIFC-islandoraID: pl-wtm:57754
!!!URL-pdf-islandora: https://repozytorium.nifc.pl/islandora/object/pl-wtm%3A57754/datastream/PDF/view
!!!URL-scan: https://polish.musicsources.pl/pl/lokalizacje/galeria/druki-muzyczne/19483/11 @EN{Scan on Polish Music Sources Website} @PL{Skany w portalu Dziedzictwo Muzyki Polskiej w otwartym dostępie}
!!!IIIF:
!!!ONB-nifc:
!!!AIN: 1 piano 1 vox
!!!key: G
!!!OMD: Allegretto sostenuto.
**kern	**kern	**dynam	**kern	**text	**dynam
*part2	*part2	*part2	*part1	*part1	*part1
*staff3	*staff2	*staff2/3	*staff1	*staff1	*staff1
*I"Fortepian.	*I"Fortepian.	*	*I"Śpiew.	*	*
*I'pf	*I'pf	*	*I'V	*	*
*Ipiano	*Ipiano	*	*Ivox	*	*
*ICklav	*ICklav	*	*ICvox	*	*
*IGacmp	*IGacmp	*	*IGsolo	*	*
*clefF4	*clefG2	*	*clefG2	*	*
*k[f#]	*k[f#]	*	*k[f#]	*	*
*G:	*G:	*	*G:	*	*
*M3/8	*M3/8	*	*M3/8	*	*
=1	=1	=1	=1	=1	=1
8GG'\L	16d/LL	f	16d/	Raz	.
.	16d/J	.	16d/	do	.
!LO:TX:b:B:t=1	!	!	!	!	!
8B 8G 8D'\	8g'/	.	8g/	ma-	.
8cJ 8F# 8D'\	8a'/J	.	8a/	-łej	.
=2	=2	=2	=2	=2	=2
8GG'\L	8b\	.	8b\	Zo-	.
!LO:TX:b:B:t=2	!	!	!	!	!
8B 8G 8D'\	4dd\	.	8dd\	-si	.
8BJ 8G 8D'\	.	.	8r	.	.
=3	=3	=3	=3	=3	=3
8GG'\L	16a/LL	.	16a/	mó-	.
.	16a/J	.	16a/	-wi	.
!LO:TX:b:B:t=3	!	!	!	!	!
8c 8F# 8D'\	8a'/	.	8a/	tak	.
8cJ 8F# 8D'\	8b'/J	.	8b\	Ja-	.
=4	=4	=4	=4	=4	=4
8GG'\L	4.g/	.	8g/	-nu-	.
!LO:TX:b:B:t=4	!	!	!	!	!
8B 8G 8D'\	.	.	8g/	-szek:	.
8BJ 8G 8D'\	.	.	8r	.	.
=5	=5	=5	=5	=5	=5
8GG'\L	16d/LL	.	16d/	"Pójdź-	.
.	16d/J	.	16d/	-my	.
!LO:TX:b:B:t=5	!	!	!	!	!
8B 8G 8D'\	8g'/	.	8g/	do	.
8cJ 8F# 8D'\	8a'/J	.	8a/	o-	.
=6	=6	=6	=6	=6	=6
8GG'\L	8b\	.	8b\	-gro-	.
!LO:TX:b:B:t=6	!	!	!	!	!
8B 8G 8D'\	4dd\	.	8dd\	-du,	.
8BJ 8G 8D'\	.	.	8r	.	.
!!LO:LB:g=original
=7	=7	=7	=7	=7	=7
8AA'\L	16a'\LL	.	16a/	na-	.
.	16a'\J	.	16a/	-trzę-	.
!LO:TX:b:B:t=7	!	!	!	!	!
8g 8c#X 8A'\	8ee'\	.	8ee\	-sie-	.
8gJ 8e 8A'\	8cc#X'\J	.	8cc#X\	-my	.
=8	=8	=8	=8	=8	=8
8D'\L	4.dd\	.	8dd\	gru-	.
!LO:TX:b:B:t=8	!	!	!	!	!
8f# 8d 8A'\	.	.	8dd\	-szek,	.
8f#J 8d 8A'\	.	.	8r	.	.
=9	=9	=9	=9	=9	=9
4.r	16ccn'\LL	.	16ccn\	wej-	.
.	16b'\J	.	16b\	-dę	.
!LO:TX:b:B:t=9	!	!	!	!	!
.	8a'\	.	8a/	po	.
.	8g'\J	.	8g/	ga-	.
=10	=10	=10	=10	=10	=10
16AA/LL	8f#'/	f	8f#/	-łę-	.
16GG/	.	.	.	.	.
!LO:TX:b:B:t=10	!	!	!	!	!
16FF#/	4d/	.	8d/	-zi,	.
16EE/J	.	.	.	.	.
8DD/J	.	.	8r	.	.
=11	=11	=11	=11	=11	=11
*^	*	*	*	*	*
8r	4.D\	16gg'\LL	p	16g/	przy-	.
.	.	16aa'\J	.	16a/	-gnę	.
!LO:TX:b:B:t=11	!	!	!	!	!	!
8BL 8G/	.	8bb'\	.	8b\	ją	.
8c#XJ 8B-X 8G/	.	8eee'\J	.	8ee\	do	.
=12	=12	=12	=12	=12	=12	=12
4.d/	4.A 4.F# 4.D\	16ddd'\LL	.	4dd\	do-	.
.	.	16eee'\	.	.	.	.
.	.	16ddd'\	.	.	.	.
.	.	16eee'\J	.	.	.	.
.	.	8ddd'\J	.	8dd\	-łu,	.
*v	*v	*	*	*	*	*
=13	=13	=13	=13	=13	=13
*	*^	*	*	*	*
16F#'\LL	16cc'/LL	4.d\	.	16cc\	nar-	.
16G'\J	16b'/J	.	.	16b\	-wiesz	.
8A'\	8a'/	.	.	8a/	i-	.
8B'\J	8g'/J	.	.	8g/	-le	.
!!LO:LB:g=original
=14	=14	=14	=14	=14	=14	=14
4.c 4.D\	4f#/	16d'\LL	.	8f#/	ze-	.
.	.	16e'\	.	.	.	.
.	.	16d'\	.	4d/	-chcesz	.
.	.	16e'\J	.	.	.	.
.	8ryy	8d'<\J	.	.	.	.
*	*v	*v	*	*	*	*
=15	=15	=15	=15	=15	=15
*^	*	*	*	*	*
8r	4.D\	16g'\LL	<	16g/	gru-	.
.	.	16a'\J	.	16a/	-szek	.
8BL 8G/	.	8b'\	.	8b\	bez	.
8c#XJ 8B-X 8G/	.	8ee'\J	[	8ee\	mo-	.
=16	=16	=16	=16	=16	=16	=16
4.d 4.A 4.F#/	4.D\	16dd'\LL	>	8dd\	-zo-	.
.	.	16ee'\	.	.	.	.
.	.	16dd'\	.	8dd\	-łu.	.
.	.	16ee'\	.	.	.	.
.	.	16dd'\	.	8r	.	.
.	.	16ee'\JJ	.	.	.	.
*v	*v	*	*	*	*	*
=17	=17	=17	=17	=17	=17
4.r	16dd'/LL	.	4.r	.	.
.	16cc'/	.	.	.	.
.	16a'/	.	.	.	.
.	16f#'/	.	.	.	.
.	16e'/	.	.	.	.
.	16d'/JJ	]	.	.	.
=18	=18	=18	=18	=18	=18
8GG'\L	16d'/LL	p	16d/	A	.
.	16d'/J	.	16d/	jak-	.
8B' 8G 8D\	8g'/	.	8g/	-by	.
8c'J 8F# 8D\	8a'/J	.	8a/	ci	.
=19	=19	=19	=19	=19	=19
8GG'\L	8b'\	.	8b\	się-	.
8B' 8G 8D\	4dd\	.	8dd\	-gnąć	.
8B'J 8G 8D\	.	.	8r	.	.
=20	=20	=20	=20	=20	=20
8GG'\L	16a'/LL	.	16a/	by-	.
.	16a'/J	.	16a/	-ło	.
8c' 8F# 8D\	8a'/	.	8a/	nie-	.
8c'J 8F# 8D\	8b'/J	.	8b\	-wy-	.
=21	=21	=21	=21	=21	=21
8GG'\L	4.g/	.	8g/	-go-	.
8B' 8G 8D\	.	.	8g/	-dnie,	.
8B'J 8G 8D\	.	.	8r	.	.
!!LO:PB:g=original
=22	=22	=22	=22	=22	=22
8GG\L	16g'/LL	<	16g/	któ-	.
.	16g'/J	.	16g/	-rą	.
8fn 8B 8G\	8a'/	.	8a/	tyl-	.
8fJ 8B 8G\	8b'/J	.	8b\	-ko	.
*clefG2	*	*	*	*	*
=23	=23	=23	=23	=23	=23
8e 8c/	8cc'\	.	8cc\	wska-	.
4g/	4ee\	.	8ee\	-żesz	.
.	.	.	8r	.	.
*clefF4	*	*	*	*	*
=24	=24	=24	=24	=24	=24
8D\L	16dd\LL	f	16dd\	strzą-	.
.	16a\J	.	16a/	-snę	.
8c 8F#X\	8a\	.	8a/	nie-	.
8cJ 8F#\	8b\J	.	8b\	-za-	.
=25	=25	=25	=25	=25	=25
8GG\L	4.g/	.	8g/	-wo-	.
8B 8G 8D\	.	.	8g/	-dnie,	.
8BJ 8G 8D\	.	.	8r	.	.
=26	=26	=26	=26	=26	=26
8GG\L	16dd'/LL	p	16dd\	strzą-	p
.	16d'/JJ	.	16d/	-sne	.
8c 8F# 8D\	4d/	.	4d/	ja,	.
8cJ 8F# 8D\	.	.	.	.	.
=27	=27	=27	=27	=27	=27
8GG'\L	16b'/LL	.	16b\	strzą-	.
.	16g'/JJ	.	16g/	-snę	.
8B 8G 8D\	4g/	.	4g/	ją,	.
8BJ 8G 8D\	.	.	.	.	.
=28	=28	=28	=28	=28	=28
8D'\L	16a'/LL	.	16a/	strzą-	.
.	16d'/J	.	16d/	-snę	.
8c 8G\	8d'/	.	8d/	nie-	.
8cJ 8F# 8D'\	8b'/J	.	8b\	-za-	.
=29	=29	=29	=29	=29	=29
8BL 8G'\	8g\L	.	8g/	-wo-	.
.	8qff#/	.	.	.	.
8dJ 8G'\	8ggJ 8b'\	sf	8g/	-dnie.	.
8r	8r	.	8r	.	.
==	==	==	==	==	==
*-	*-	*-	*-	*-	*-
!!!system-decoration: s1{(s2,s3)}
!!!RDF**kern: < = below
!!!ENC: Andrzej Gręziak
!!!END: 2025-03-26
!!!EED: Marta Lawrence
!!!EEV: 2025-03-30
